build/img/stack/logo.svg

<svg width="58" height="44" viewBox="0 0 58 44" fill="none" xmlns="http://www.w3.org/2000/svg">
<g clip-path="url(#clip0_1805_66)">
<path d="M35.598 0.103046C34.0574 -0.318048 32.4534 0.532734 32.0093 1.99367L20.4093 40.4937C19.9652 41.9546 20.8624 43.4757 22.403 43.8968C23.9437 44.3179 25.5477 43.4671 25.9918 42.0062L37.5918 3.50617C38.0359 2.04523 37.1387 0.52414 35.598 0.103046ZM42.9024 10.4241C41.7696 11.4984 41.7696 13.2429 42.9024 14.3171L50.9952 21.9999L42.8934 29.6827C41.7605 30.757 41.7605 32.5015 42.8934 33.5757C44.0262 34.6499 45.8659 34.6499 46.9987 33.5757L57.1487 23.9507C58.2815 22.8765 58.2815 21.132 57.1487 20.0577L46.9987 10.4327C45.8659 9.35851 44.0262 9.35851 42.8934 10.4327L42.9024 10.4241ZM15.1077 10.4241C13.9749 9.34992 12.1352 9.34992 11.0024 10.4241L0.852417 20.0491C-0.280396 21.1234 -0.280396 22.8679 0.852417 23.9421L11.0024 33.5671C12.1352 34.6413 13.9749 34.6413 15.1077 33.5671C16.2405 32.4929 16.2405 30.7484 15.1077 29.6741L7.00586 21.9999L15.1077 14.3171C16.2405 13.2429 16.2405 11.4984 15.1077 10.4241Z" fill="#7B4AE2"/>
</g>
<defs>
<clipPath id="clip0_1805_66">
<rect width="58" height="44" fill="white"/>
</clipPath>
</defs>
</svg>

<svg width="58" height="44" fill="none" xmlns="http://www.w3.org/2000/svg"><g clip-path="url(#a)"><path d="M35.598.103c-1.54-.421-3.145.43-3.589 1.89l-11.6 38.5c-.444 1.462.453 2.983 1.994 3.404 1.54.42 3.145-.43 3.589-1.89l11.6-38.5c.444-1.462-.453-2.983-1.994-3.404Zm7.304 10.321a2.655 2.655 0 0 0 0 3.893L50.995 22l-8.102 7.683a2.654 2.654 0 0 0 0 3.893c1.133 1.074 2.973 1.074 4.106 0l10.15-9.625a2.655 2.655 0 0 0 0-3.893l-10.15-9.625c-1.133-1.074-2.973-1.074-4.106 0l.01-.009Zm-27.794 0c-1.133-1.074-2.973-1.074-4.106 0L.852 20.05a2.655 2.655 0 0 0 0 3.893l10.15 9.625c1.133 1.074 2.973 1.074 4.106 0a2.655 2.655 0 0 0 0-3.893L7.006 22l8.102-7.683a2.655 2.655 0 0 0 0-3.893Z" fill="#7B4AE2"/></g><defs><clipPath id="a"><path fill="#fff" d="M0 0h58v44H0z"/></clipPath></defs></svg>
